X:1
T:Loudon's Bonnie Woods & Braes
M:C
L:1/8
R:Pipe Strathspey
B:William Ross - Ross's Collection of Pipe Music (1869, No. 171, p. 118)
Z:AK/Fiddler's Companion
K:Amix
A<A A2 B/c/d e2|d>Bc>A c<eB>G|A<A A2 B/c/d e2|
c>ag/f/e g2 a2:|c<ea>e g>ef>d|c<eg>A c<eB>G|
c>ea>e g>ef>d|c>ag/f/e g2 a2|c<ea>e g>ef>d|
c<eg>A c<eB>G|A<A A2 B/c/d e2|c>ag/f/e g2 a2||

